img/payments/Visa.svg

<svg width="110" height="110" viewBox="0 0 110 110" fill="none" xmlns="http://www.w3.org/2000/svg">
<path d="M2 55C2 25.7289 25.7289 2 55 2V2C84.2711 2 108 25.7289 108 55V55C108 84.2711 84.2711 108 55 108V108C25.7289 108 2 84.2711 2 55V55Z" fill="#1434CB"/>
<g clip-path="url(#clip0_1317_12640)">
<path d="M66.2164 41.7861C60.9532 41.7861 56.2497 44.7869 56.2497 50.331C56.2497 56.6891 64.5915 57.1282 64.5915 60.3223C64.5915 61.6672 63.1903 62.8711 60.7971 62.8711C57.4008 62.8711 54.8623 61.1889 54.8623 61.1889L53.7761 66.7836C53.7761 66.7836 56.7004 68.2045 60.5828 68.2045C66.3372 68.2045 70.8652 65.0564 70.8652 59.4175C70.8652 52.6991 62.4886 52.273 62.4886 49.3083C62.4886 48.2548 63.6389 47.1004 66.0252 47.1004C68.7177 47.1004 70.9144 48.3238 70.9144 48.3238L71.9774 42.9204C71.9774 42.9204 69.5872 41.7861 66.2164 41.7861V41.7861ZM18.063 42.1939L17.9355 43.0096C17.9355 43.0096 20.1498 43.4553 22.1441 44.3445C24.7119 45.3641 24.8948 45.9577 25.3273 47.8013L30.0398 67.784H36.3569L46.089 42.1939H39.7863L33.5329 59.5927L30.9811 44.8447C30.7471 43.1568 29.5617 42.1939 28.1108 42.1939H18.063V42.1939ZM48.6234 42.1939L43.6791 67.784H49.6893L54.6161 42.1939H48.6234V42.1939ZM82.1439 42.1939C80.6947 42.1939 79.9268 43.0474 79.3633 44.5388L70.5581 67.784H76.8608L78.0802 63.9098H85.7587L86.5002 67.784H92.0613L87.2098 42.1939H82.1439V42.1939ZM82.9636 49.1076L84.8318 58.7102H79.8268L82.9636 49.1076V49.1076Z" fill="white"/>
</g>
<path d="M55 106.775C26.4055 106.775 3.225 83.5945 3.225 55H0.775C0.775 84.9476 25.0524 109.225 55 109.225V106.775ZM106.775 55C106.775 83.5945 83.5945 106.775 55 106.775V109.225C84.9476 109.225 109.225 84.9476 109.225 55H106.775ZM55 3.225C83.5945 3.225 106.775 26.4055 106.775 55H109.225C109.225 25.0524 84.9476 0.775 55 0.775V3.225ZM55 0.775C25.0524 0.775 0.775 25.0524 0.775 55H3.225C3.225 26.4055 26.4055 3.225 55 3.225V0.775Z" fill="white"/>
<defs>
<clipPath id="clip0_1317_12640">
<rect width="74.2" height="26.5" fill="white" transform="translate(17.9004 41.75)"/>
</clipPath>
</defs>
</svg>

<svg width="110" height="110" fill="none" xmlns="http://www.w3.org/2000/svg"><path d="M2 55C2 25.729 25.729 2 55 2s53 23.729 53 53-23.729 53-53 53S2 84.271 2 55z" fill="#1434CB"/><g clip-path="url(#clip0_1317_12640)"><path d="M66.216 41.786c-5.263 0-9.966 3-9.966 8.545 0 6.358 8.341 6.797 8.341 9.991 0 1.345-1.4 2.55-3.794 2.55-3.396 0-5.935-1.683-5.935-1.683l-1.086 5.595s2.924 1.42 6.807 1.42c5.754 0 10.282-3.148 10.282-8.786 0-6.719-8.376-7.145-8.376-10.11 0-1.053 1.15-2.208 3.536-2.208 2.693 0 4.89 1.224 4.89 1.224l1.062-5.404s-2.39-1.134-5.76-1.134zm-48.153.408l-.127.816s2.214.445 4.208 1.334c2.568 1.02 2.75 1.614 3.183 3.457l4.713 19.983h6.317l9.732-25.59h-6.303l-6.253 17.399-2.552-14.748c-.234-1.688-1.42-2.651-2.87-2.651H18.063zm30.56 0l-4.944 25.59h6.01l4.927-25.59h-5.993zm33.52 0c-1.448 0-2.216.853-2.78 2.345l-8.805 23.245h6.303l1.22-3.874h7.678l.741 3.874h5.561l-4.851-25.59h-5.066zm.82 6.914l1.869 9.602h-5.005l3.137-9.602z" fill="#fff"/></g><path d="M55 106.775c-28.595 0-51.775-23.18-51.775-51.775H.775c0 29.948 24.277 54.225 54.225 54.225v-2.45zM106.775 55c0 28.594-23.18 51.775-51.775 51.775v2.45c29.948 0 54.225-24.277 54.225-54.225h-2.45zM55 3.225c28.594 0 51.775 23.18 51.775 51.775h2.45C109.225 25.052 84.948.775 55 .775v2.45zm0-2.45C25.052.775.775 25.052.775 55h2.45C3.225 26.405 26.405 3.225 55 3.225V.775z" fill="#fff"/><defs><clipPath id="clip0_1317_12640"><path fill="#fff" transform="translate(17.9 41.75)" d="M0 0h74.2v26.5H0z"/></clipPath></defs></svg>
